packages/bezier-icons/icons/star.svg

<svg width="24" height="24" viewBox="0 0 24 24" fill="none" xmlns="http://www.w3.org/2000/svg">
<path fill-rule="evenodd" clip-rule="evenodd" d="M12.002 18.4377L15.7432 21.1556C17.5288 22.453 19.9308 20.7079 19.2479 18.6092L17.8195 14.2107L21.5607 11.4926C23.3453 10.1948 22.4285 7.37261 20.222 7.37261L15.5974 7.37175L14.168 2.97446C13.4872 0.875099 10.5167 0.875099 9.83573 2.97515L8.40649 7.37175L3.78178 7.37261C1.57541 7.37261 0.658615 10.1948 2.4428 11.4923L6.18448 14.2107L4.75587 18.6097C4.07313 20.7079 6.47511 22.453 8.26076 21.1556L12.002 18.4377ZM12.5897 16.3926L12.002 15.9656L7.08521 19.5376C6.86707 19.6961 6.57471 19.4837 6.65789 19.2281L8.31107 14.1375L8.53545 13.4466L3.61873 9.87459C3.40112 9.71633 3.51277 9.37262 3.78197 9.37262L9.13315 9.37162L9.85944 9.37149L11.738 3.59278C11.8212 3.33613 12.1827 3.33613 12.2657 3.59209L13.92 8.68078L14.1445 9.37149L20.2218 9.37262C20.4912 9.37262 20.6028 9.71633 20.3848 9.87489L16.0562 13.0196L15.4685 13.4466L17.3459 19.2275C17.4292 19.4837 17.1369 19.6961 16.9188 19.5376L12.5897 16.3926Z" fill="#313234"/>
</svg>

<svg xmlns="http://www.w3.org/2000/svg" width="24" height="24" fill="none" viewBox="0 0 24 24"><path fill="#313234" fill-rule="evenodd" d="m12.002 18.438 3.741 2.718c1.786 1.297 4.188-.448 3.505-2.547l-1.428-4.398 3.74-2.718c1.785-1.298.869-4.12-1.338-4.12l-4.625-.001-1.429-4.398c-.68-2.099-3.651-2.099-4.332.001l-1.43 4.397H3.782c-2.207 0-3.123 2.823-1.34 4.12l3.742 2.719-1.428 4.399c-.683 2.098 1.72 3.843 3.505 2.546zm.588-2.045-.588-.427-4.917 3.572a.277.277 0 0 1-.427-.31l1.653-5.09.224-.691L3.62 9.875a.277.277 0 0 1 .163-.502l5.351-.001h.726l1.879-5.78a.277.277 0 0 1 .528 0l1.654 5.089.225.69 6.077.002c.27 0 .38.343.163.502l-4.329 3.145-.588.427 1.878 5.78a.277.277 0 0 1-.427.31z" clip-rule="evenodd"/></svg>
